src/assets/icons/graduation_cap_icon.svg

<svg fill="none" height="24" viewBox="0 0 24 24" width="24" xmlns="http://www.w3.org/2000/svg"><path d="m11.8639 3.07382c.2098-.08787.4437-.09728.6582-.02832l.0908.03418 8.8594 3.8877c.7429.32594.7618 1.37298.0313 1.72558l-2.0508.98926v3.94338c0 .0096-.0009.0196-.001.0293v6.3262c-.0003.4139-.3359.75-.75.75-.414-.0001-.7497-.3361-.75-.75v-3.1397c-1.17.9574-3.1326 1.9774-6.1562 1.9775-3.69009 0-5.62483-1.5195-6.52641-2.622-.57061-.6978-.69821-1.5595-.69824-2.2793v-4.28811l-2.01856-.92969c-.7507-.34601-.73204-1.41973.03028-1.73926zm-5.79295 10.84378c.00003.577.109 1.0239.35937 1.3301.63426.7755 2.15237 2.0712 5.36528 2.0712 3.0416-.0001 4.752-1.1623 5.583-1.9716.3881-.3785.5685-.9696.5732-1.6924v-3.2324c0-.0056.0009-.0111.001-.0166l-5.3086 2.5625c-.2555.1232-.553.1264-.8106.0078l-5.76265-2.6553zm-1.75586-6.05667 7.91011 3.64357 4.375-2.11232-4.4033-1.86328c-.3813-.16137-.5596-.60103-.3984-.98242.1614-.38143.601-.55972.9824-.39844l5.6182 2.37598 1.3769-.66406-7.5508-3.3125z" fill="#000"/></svg>

<svg width="24" height="24" viewBox="0 0 24 24" fill="none" xmlns="http://www.w3.org/2000/svg">
<path d="M11.8639 3.07382C12.0737 2.98595 12.3076 2.97654 12.5221 3.0455L12.6129 3.07968L21.4723 6.96738C22.2152 7.29332 22.2341 8.34036 21.5036 8.69296L19.4528 9.68222V13.6256C19.4528 13.6352 19.4519 13.6452 19.4518 13.6549V19.9811C19.4515 20.395 19.1159 20.7311 18.7018 20.7311C18.2878 20.731 17.9521 20.395 17.9518 19.9811V16.8414C16.7818 17.7988 14.8192 18.8188 11.7956 18.8189C8.10551 18.8189 6.17077 17.2994 5.26919 16.1969C4.69858 15.4991 4.57098 14.6374 4.57095 13.9176V9.62949L2.55239 8.6998C1.80169 8.35379 1.82035 7.28007 2.58267 6.96054L11.8639 3.07382ZM6.07095 13.9176C6.07098 14.4946 6.17995 14.9415 6.43032 15.2477C7.06458 16.0232 8.58269 17.3189 11.7956 17.3189C14.8372 17.3188 16.5476 16.1566 17.3786 15.3473C17.7667 14.9688 17.9471 14.3777 17.9518 13.6549V10.4225C17.9518 10.4169 17.9527 10.4114 17.9528 10.4059L12.6442 12.9684C12.3887 13.0916 12.0912 13.0948 11.8336 12.9762L6.07095 10.3209V13.9176ZM4.31509 7.86093L12.2252 11.5045L16.6002 9.39218L12.1969 7.5289C11.8156 7.36753 11.6373 6.92787 11.7985 6.54648C11.9599 6.16505 12.3995 5.98676 12.7809 6.14804L18.3991 8.52402L19.776 7.85996L12.2252 4.54746L4.31509 7.86093Z" fill="black"/>
</svg>
